src/lib/packages/icons/src/assets/filled/alarm-clock-empty.svg

<svg width="24" height="24" viewBox="0 0 24 24" fill="none" xmlns="http://www.w3.org/2000/svg">
<path d="M16.6021 18.5371L18.531 20.471C18.823 20.764 18.8231 21.239 18.5291 21.532C18.3831 21.678 18.191 21.751 18 21.751C17.808 21.751 17.615 21.6771 17.469 21.5301L15.251 19.3059C14.257 19.7489 13.159 20 12.001 20C10.843 20 9.745 19.7489 8.751 19.3059L6.53201 21.5301C6.38601 21.6761 6.193 21.75 6.001 21.75C5.81 21.75 5.61795 21.677 5.47195 21.531C5.17795 21.239 5.17799 20.763 5.46999 20.47L7.39993 18.5371C5.34693 17.0891 4.00198 14.703 4.00198 12C4.00198 7.58202 7.58398 4.00002 12.002 4.00002C16.42 4.00002 20.002 7.58202 20.002 12C20 14.703 18.6551 17.0891 16.6021 18.5371ZM5.53005 2.46999C5.23705 2.17699 4.76202 2.17699 4.46902 2.46999L2.46902 4.46999C2.17602 4.76299 2.17602 5.23803 2.46902 5.53103C2.61502 5.67703 2.80705 5.751 2.99905 5.751C3.19105 5.751 3.38308 5.67803 3.52908 5.53103L5.52908 3.53103C5.82308 3.23703 5.82305 2.76299 5.53005 2.46999ZM21.5249 4.46401L19.5249 2.50405C19.2289 2.21405 18.7549 2.21904 18.4629 2.51504C18.1739 2.81104 18.1791 3.28607 18.4741 3.57607L20.4741 5.53603C20.6201 5.67903 20.81 5.75002 20.999 5.75002C21.193 5.75002 21.3879 5.67505 21.5349 5.52505C21.8249 5.22905 21.8199 4.75401 21.5249 4.46401Z" fill="currentColor"/>
</svg>

<svg xmlns="http://www.w3.org/2000/svg" width="24" height="24" fill="none"><path fill="currentColor" d="m16.602 18.537 1.929 1.934a.75.75 0 0 1-1.062 1.06l-2.218-2.225a7.96 7.96 0 0 1-6.5 0L6.532 21.53a.75.75 0 0 1-1.062-1.06l1.93-1.933A7.986 7.986 0 0 1 4.002 12a8 8 0 0 1 16 0 7.993 7.993 0 0 1-3.4 6.537ZM5.53 2.47a.75.75 0 0 0-1.061 0l-2 2a.75.75 0 0 0 1.06 1.061l2-2A.75.75 0 0 0 5.53 2.47Zm15.995 1.994-2-1.96a.751.751 0 0 0-1.05 1.072l2 1.96a.748.748 0 0 0 1.06-.01.751.751 0 0 0-.01-1.062Z"/></svg>
